lib/images/proreferral/ProReferral-CTA-Arrow.svg

<?xml version="1.0" encoding="UTF-8" standalone="no"?>
<svg width="24px" height="23px" viewBox="0 0 24 23" version="1.1" xmlns="http://www.w3.org/2000/svg" xmlns:xlink="http://www.w3.org/1999/xlink">
    <!-- Generator: Sketch 3.6.1 (26313) - http://www.bohemiancoding.com/sketch -->
    <title>Fill 163</title>
    <desc>Created with Sketch.</desc>
    <defs></defs>
    <g id="Page-1" stroke="none" stroke-width="1" fill="none" fill-rule="evenodd">
        <g id="Fill-163" fill="#F58220">
            <path d="M23.8545,11.2568 L13.7055,1.0918 C13.2385,0.6258 12.6095,0.3688 11.9325,0.3688 C11.2165,0.3688 10.5395,0.6518 10.0235,1.1658 C9.5265,1.6628 9.2435,2.3178 9.2255,3.0108 C9.2085,3.7118 9.4645,4.3648 9.9555,4.8548 L14.2775,8.9998 L2.0305,8.9998 C0.7595,8.9998 0.0005,10.2708 0.0005,11.4998 C0.0005,12.7168 0.7015,14.0088 2.0025,14.0088 L14.2785,14.0088 L10.1225,18.1678 C9.6665,18.6228 9.4155,19.2398 9.4145,19.9038 C9.4135,20.6118 9.7075,21.3128 10.2205,21.8258 C10.7335,22.3378 11.4325,22.6318 12.1405,22.6318 C12.8035,22.6318 13.4205,22.3808 13.8775,21.9248 L23.8535,11.9638 C24.0485,11.7688 24.0485,11.4518 23.8545,11.2568"></path>
        </g>
    </g>
</svg>

<svg width="24" height="23" viewBox="0 0 24 23" xmlns="http://www.w3.org/2000/svg"><title>Fill 163</title><path d="M23.855 11.257L13.705 1.092A2.488 2.488 0 0 0 11.933.37a2.69 2.69 0 0 0-1.91.796 2.7 2.7 0 0 0-.796 1.845c-.018.702.238 1.355.73 1.845L14.277 9H2.03C.76 9 0 10.27 0 11.5c0 1.217.702 2.51 2.002 2.51H14.28l-4.157 4.158a2.436 2.436 0 0 0-.708 1.736c0 .708.293 1.41.806 1.922a2.742 2.742 0 0 0 1.92.806c.663 0 1.28-.25 1.737-.707l9.976-9.96a.5.5 0 0 0 .002-.708" fill="#F58220" fill-rule="evenodd"/></svg>
